X:1
T:The Wonderful Christmas Story
T:The Wonderful Christmas Story
T:Charles Hutchinson Gabriel
T:Lizzie DeArmond, 1909
T:Public Domain Courtesy of the Cyber Hymnal™
T:Public Domain Courtesy of the Cyber Hymnal™
C:Charles Hutchinson Gabriel
Z:Public Domain
Z:Courtesy of the Cyber Hymnal™
%%score ( 1 2 ) ( 3 4 )
L:1/8
Q:1/4=102
M:4/4
K:Ab
V:1 treble 
V:2 treble 
V:3 bass 
V:4 bass 
V:1
 [CE]2 [CE][CE] [CA]2 [CA][CA] | [Ec]2 [Ec]2 [CA]2 [EA]2 | [EG]2 [GB]2 [Ge]2 [Fd][Fd] | %3
w: 1.~Let peace and joy in each|life a- bide, The|Christ is born at this|
w: 2.~Tho’ years have passed, still the|song so dear Thrills|wear- y hearts with its|
w: 3.~Ring, mer- ry bells, till the|dark- ness glows, While|mu- sic sweet o’er the|
 [Ec]2 [Ec]2 [CA]4 | [CE]2 [CE][CE] [CA]2 [CA][CA] | [Ec]2 [Ec]2 [CA]2 [EA]2 | %6
w: Christ- mas- tide;|O tell it out o’er the|world so wide, The|
w: notes of cheer;|Thro’ star- lit skies once a-|gain we hear The|
w: whole earth flows,|Till ev- ery soul in its|glad- ness knows The|
 [EB][EB] [Ge]2 [GB]2 [EG]2 | [=DF]4 E2 ||"^Refrain" E2 | [Gd]2 [Gd]2 [Gd]2 EE | %10
w: won- der- ful Christ- mas|sto- ry.|||
w: won- der- ful Christ- mas|sto- ry.|O|tell it out o’er the|
w: won- der- ful Christ- mas|sto- ry.|||
 [Ec]2 [Ec]2 [Ec]2 E2 | [EB][EB] [EB]2 [EB]2 [Ec][Ec] | [DB]2 [CA]2 [CE]2 [CE]2 | %13
w: |||
w: world so wide, The|glo- ri- ous news of the|Christ- mas- tide; The|
w: |||
 [Gd]2 [Gd]2 [Gd]2 EE | [Ec]2 [Ec][Ec] [Ec]2 [Ec]2 | [Ee][Ee] [Fd]2 [Ec]2 [CA]2 | [DB]4 [CA]4 |] %17
w: ||||
w: Christ has come in each|heart to a- bide— O|won- der- ful Christ- mas|sto- ry!|
w: ||||
V:2
 x8 | x8 | x8 | x8 | x8 | x8 | x8 | x4 E2 || E2 | x6 EE | x6 E2 | x8 | x8 | x6 EE | x8 | x8 | x8 |] %17
V:3
 [A,,A,]2 [A,,A,][A,,A,] [A,,E,]2 [A,,E,][A,,E,] | [A,,A,]2 [A,,A,]2 [A,,E,]2 [C,A,]2 | %2
 [E,B,]2 [E,E]2 [E,B,]2 [E,G,][E,G,] | [A,,A,]2 [A,,A,]2 [A,,A,]4 | %4
 [A,,A,]2 [A,,A,][A,,A,] [A,,E,]2 [A,,E,][A,,E,] | [A,,A,]2 [A,,A,]2 [A,,E,]2 [C,A,]2 | %6
 [E,G,][E,G,] [E,B,]2 [E,E]2 [E,B,]2 | [B,,A,]4 [E,G,]2 || [E,G,]2 | %9
 [E,B,]2 [E,B,]2 [E,B,]2 [E,G,][E,G,] | [A,,A,]2 [A,,A,]2 [A,,A,]2 [C,A,]2 | %11
 [E,G,][E,G,] [E,G,]2 [E,G,]2 [E,G,][E,G,] | [A,,A,]2 [A,,A,]2 [A,,A,]2 A,2 | %13
 [E,B,]2 [E,B,]2 [E,B,]2 [E,G,][E,G,] | [A,,A,]2 [A,,A,][A,,A,] [A,,A,]2 [A,,A,]2 | %15
 [C,A,][C,A,] [D,A,]2 [E,A,]2 [E,A,]2 | [E,G,]4 [A,,A,]4 |] %17
V:4
 x8 | x8 | x8 | x8 | x8 | x8 | x8 | x6 || x2 | x8 | x8 | x8 | x6 A,2 | x8 | x8 | x8 | x8 |] %17

